X:1
T:The Navvy Boy
M:4/4
L:1/4
K:D
 A| B B A d| F3/2- E/2 D3/2 G/2| A E F D| B,2 z| A| B B A d| F3/2- E/2 G3/2 E/2|\
 ED/2-E/2 F F| F2 z| A| B B A d| F3/2 E/2 D3/2 G/2| A E F D| B,2 z|\
D/2-E/2| F A A A| D- B, D3/2 B,/2| A, B, D D| D2 z||
